!!!COM: Meharezgi, Isaac Abraham (et al)
!!!CDT: b. 1944
!!!OTL: National Anthem, Eritrea
!!!ENC: Davis, Matthew J.
!!Vocal Line Only
**kern
*clefG2
*k[b-e-a-d-g-]
*D-:
*M4/4
=1-
1r
=2
1r
=3
2r
4r
8.A-
16A-
=4
2d-
4r
8.A-
16d-
=5
2f
4r
8.d-
16f
=6
2a-
4r
8.a-
16a-
=7
8.dd-
16dd-
8.b-
16b-
8.a-
16a-
6f
6e-
6d-
=8
2e-
4r
8.f
16f
=9
8.b-
16b-
8.a-
16a-
8.f
16f
6e-
6d-
6e-
=10
2d-
4r
8.ff
16ee-
==!|:11
4.dd-
8dd-
8dd-
8dd-
8.ee-
16ee-
=12
2a-
4r
8.f
16a-
=13
4.dd-
8dd-
8dd-
8a-
8.dd-
16ee-
-14
2ff
4r
8.ff
16ee-
=15
4.dd-
8dd-
8dd-
8dd-
8.ee-
16ee-
=16
2a-
8r
8a-
8a-
8b-
=17
4.a-
8a-
8a-
8a-
8.d-
16f
=18
2a-
4r
!Chorus
8.f
16a-
=19
[2b-
8b-]
8r
8.f
16a-
=20
[2b-
8b-]
8r
8.f
16a-
=21
8.b-
16b-
8.a-
16a-
8.f
16f
6e-
6d-
6e-
=22
!First Ending
2d-
4r
8.ff
16ee-
!Repeat from measure 11 to the second ending
==:|!23
!Second Ending
2dd-
==|!
*-
